packages/core/src/svgs/tokens/mono/XAUR.svg

<svg width="24" height="24" viewBox="0 0 24 24" fill="none" xmlns="http://www.w3.org/2000/svg">
<path d="M4.43926 2.09918L12.0966 9.85031C12.0342 9.89407 11.9966 9.9317 11.9342 9.99412L4.27673 2.24295C4.23922 2.19919 4.17672 2.2242 4.17672 2.2242C4.17672 2.2242 4.11421 2.24295 4.11421 2.29922V5.76224C4.11421 6.01228 4.22048 6.24982 4.37675 6.41235L9.41495 11.5131C9.59625 11.6944 9.81503 11.7756 10.0526 11.7756H11.5967C11.6153 11.857 11.6591 11.9194 11.6966 12.0007H10.0338C9.73379 12.0007 9.45258 11.8757 9.2338 11.6757L4.20172 6.57486C4.096 6.46799 4.01278 6.34102 3.95695 6.20145C3.90111 6.06188 3.87382 5.91254 3.87667 5.76224V2.29922C3.87667 2.18045 3.95794 2.06168 4.07671 2.01792C4.22048 1.98041 4.33925 1.99916 4.43926 2.09918Z" fill="white"/>
<path d="M19.5922 2.08045L9.95947 11.8319C10.0533 11.8757 10.1345 11.9382 10.2157 12.0007H14.0163C14.2914 12.0007 14.5351 11.8945 14.7352 11.6944L19.8297 6.53737C20.0298 6.33109 20.1298 6.0873 20.1298 5.80601V2.30547C20.1298 2.18046 20.0484 2.06169 19.9297 2.02417C19.8047 1.98042 19.6735 1.99918 19.5922 2.08669V2.08045ZM19.8485 2.20546C19.8673 2.20546 19.9111 2.22422 19.9111 2.30547V5.80601C19.9111 6.03105 19.8297 6.23107 19.6735 6.3686L14.5727 11.5319C14.4164 11.6944 14.2164 11.7756 14.01 11.7756H10.3158L19.7547 2.22422C19.7922 2.1867 19.8297 2.20546 19.8485 2.20546Z" fill="white"/>
<path d="M14.7155 12.9072L19.8287 17.7391C20.0288 17.9266 20.1289 18.158 20.1289 18.4266V21.7209C20.1289 21.8335 20.0475 21.946 19.9476 21.9835C19.8904 22.0013 19.8299 22.0048 19.7711 21.994C19.7123 21.983 19.6571 21.9579 19.6099 21.921L12.1276 14.8637L13.7528 13.3322C13.7622 13.324 13.7696 13.3138 13.7747 13.3026C13.7798 13.2912 13.7824 13.279 13.7824 13.2666C13.7824 13.2542 13.7798 13.2419 13.7747 13.2305C13.7696 13.2191 13.7622 13.2091 13.7528 13.2009C13.7435 13.1913 13.7324 13.1836 13.72 13.1783C13.7076 13.1731 13.6943 13.1704 13.6809 13.1704C13.6675 13.1704 13.6542 13.1731 13.642 13.1783C13.6296 13.1836 13.6185 13.1913 13.6092 13.2009L11.9839 14.7324L4.38894 21.9148C4.28893 21.9897 4.17016 22.0272 4.05139 21.9709C3.92637 21.9085 3.87012 21.821 3.87012 21.7084V18.4643C3.87012 18.1829 3.99513 17.9141 4.18891 17.7141L9.23962 12.9321C9.4584 12.7259 9.73975 12.6321 10.0398 12.6321H14.003C14.2842 12.6321 14.5218 12.7259 14.7217 12.9133L14.7155 12.9072Z" fill="white"/>
</svg>

<svg xmlns="http://www.w3.org/2000/svg" width="24" height="24" fill="none" viewBox="0 0 24 24">
    <path fill="#fff" d="m4.44 2.1 7.657 7.75c-.063.044-.1.082-.163.144L4.277 2.243c-.038-.044-.1-.019-.1-.019s-.063.019-.063.075v3.463c0 .25.106.488.263.65l5.038 5.101c.181.181.4.263.638.263h1.544c.018.081.062.143.1.225h-1.663c-.3 0-.581-.125-.8-.325L4.202 6.575a1.13 1.13 0 0 1-.325-.813V2.3a.31.31 0 0 1 .2-.281c.143-.038.262-.019.362.081"/>
    <path fill="#fff" d="M19.592 2.08 9.96 11.832c.094.044.175.106.257.169h3.8a1 1 0 0 0 .72-.307l5.094-5.157q.3-.31.3-.731v-3.5a.3.3 0 0 0-.2-.282c-.125-.044-.256-.025-.338.063zm.257.125c.018 0 .062.02.062.1v3.501a.73.73 0 0 1-.238.563l-5.1 5.163a.77.77 0 0 1-.563.244h-3.694l9.439-9.552c.037-.037.075-.019.094-.019m-5.133 10.702 5.113 4.832q.3.283.3.688v3.294a.3.3 0 0 1-.181.262.37.37 0 0 1-.338-.062l-7.482-7.057 1.625-1.532a.087.087 0 0 0 0-.131.1.1 0 0 0-.072-.03.1.1 0 0 0-.072.03l-1.625 1.531-7.595 7.183c-.1.075-.219.112-.338.056-.125-.062-.18-.15-.18-.263v-3.244c0-.281.124-.55.318-.75l5.05-4.782c.22-.206.5-.3.8-.3h3.964q.42 0 .719.281z"/>
</svg>
